X:78
T:score167
L:1/8
Q:1/4=96
M:2/4
I:linebreak $
K:Bb
 (f7/4_e/4 d).d | (d.e) c2 |!<(! (B=B c/>d/e/>!<)!g/) |!>(! (d2 c/=B/c/!>)!d/) | %4
"_cresc." (e7/4d/4 c).c |$ (g7/4f/4 e)e | (d=e fA) |!>(! (c2 .B)!>)! z |] %8
